X: 15212
T: Ginevra's Air
R: waltz
M: 3/4
K: Gmajor
D2|G6-|G2 A2 G2|F2 d4 -|d4 d2|c6 -|c2 d2 e2|A6 -|
A2 B2 A2|B6|B4 A2|B2 E4 -|E2 E2 D2|E2 G4 -|
G4 F2|E2 D4 -|D2 B,2 D2|F2 G4 -|G2 F2 G2|e2 d4 -|
d4 d2|e2 a4 -|a4 g2|f2 d4 -|d2 d2 e2|=f6|
=f2 g2 f2|e2 c4 -|c4 e2|d2 A4 -|A4 B2|A6|
f2 g2 a2|b6|b4 a2|ba g4 -|g2 a2 g2|f4 d2|
e4 c2|B2 A4 -|A2 B2 A2|B6|B4 A2|B2 E4 -|
E2 E2 D2|E2 G4 -|G4 F2|E2 D4 -|D6||

